svgs/duotone/list-radio.svg

<svg xmlns="http://www.w3.org/2000/svg" viewBox="0 0 512 512"><!--! Font Awesome Pro 6.1.1 by @fontawesome - https://fontawesome.com License - https://fontawesome.com/license (Commercial License) Copyright 2022 Fonticons, Inc. --><defs><style>.fa-secondary{opacity:.4}</style></defs><path class="fa-primary" d="M0 96C0 60.65 28.65 32 64 32C99.35 32 128 60.65 128 96C128 131.3 99.35 160 64 160C28.65 160 0 131.3 0 96zM0 256C0 220.7 28.65 192 64 192C99.35 192 128 220.7 128 256C128 291.3 99.35 320 64 320C28.65 320 0 291.3 0 256zM64 280C77.25 280 88 269.3 88 256C88 242.7 77.25 232 64 232C50.75 232 40 242.7 40 256C40 269.3 50.75 280 64 280zM0 416C0 380.7 28.65 352 64 352C99.35 352 128 380.7 128 416C128 451.3 99.35 480 64 480C28.65 480 0 451.3 0 416zM64 440C77.25 440 88 429.3 88 416C88 402.7 77.25 392 64 392C50.75 392 40 402.7 40 416C40 429.3 50.75 440 64 440z"/><path class="fa-secondary" d="M160 96C160 78.33 174.3 64 192 64H480C497.7 64 512 78.33 512 96C512 113.7 497.7 128 480 128H192C174.3 128 160 113.7 160 96zM160 256C160 238.3 174.3 224 192 224H480C497.7 224 512 238.3 512 256C512 273.7 497.7 288 480 288H192C174.3 288 160 273.7 160 256zM480 384C497.7 384 512 398.3 512 416C512 433.7 497.7 448 480 448H192C174.3 448 160 433.7 160 416C160 398.3 174.3 384 192 384H480z"/></svg>

<svg xmlns="http://www.w3.org/2000/svg" viewBox="0 0 512 512"><!--! Font Awesome Pro 6.4.2 by @fontawesome - https://fontawesome.com License - https://fontawesome.com/license (Commercial License) Copyright 2023 Fonticons, Inc. --><path class="fa-primary" style="fill:var(--fa-primary-color,inherit);opacity:var(--fa-primary-opacity,1);" d="M64 160A64 64 0 1 0 64 32a64 64 0 1 0 0 128zm0 72a24 24 0 1 1 0 48 24 24 0 1 1 0-48zm0 88a64 64 0 1 0 0-128 64 64 0 1 0 0 128zm0 72a24 24 0 1 1 0 48 24 24 0 1 1 0-48zm0 88a64 64 0 1 0 0-128 64 64 0 1 0 0 128z"/><path class="fa-secondary" style="fill:var(--fa-secondary-color,inherit);opacity:var(--fa-secondary-opacity,.4);" d="M160 96c0-17.7 14.3-32 32-32H480c17.7 0 32 14.3 32 32s-14.3 32-32 32H192c-17.7 0-32-14.3-32-32zm0 160c0-17.7 14.3-32 32-32H480c17.7 0 32 14.3 32 32s-14.3 32-32 32H192c-17.7 0-32-14.3-32-32zm32 128H480c17.7 0 32 14.3 32 32s-14.3 32-32 32H192c-17.7 0-32-14.3-32-32s14.3-32 32-32z"/></svg>
